packages/crayons-core/src/components/icon/icon-assets/icons/refresh.svg

<?xml version="1.0" encoding="UTF-8"?>
<svg width="16px" height="16px" viewBox="0 0 16 16" version="1.1" xmlns="http://www.w3.org/2000/svg" xmlns:xlink="http://www.w3.org/1999/xlink">
    <!-- Generator: Sketch 52.6 (67491) - http://www.bohemiancoding.com/sketch -->
    <title>icon/refresh</title>
    <desc>Created with Sketch.</desc>
    <g id="Icons-✅" stroke="none" stroke-width="1" fill="none" fill-rule="evenodd">
        <g id="Icons" transform="translate(-162.000000, -1332.000000)" fill="currentColor">
            <g id="icon/refresh" transform="translate(162.000000, 1332.000000)">
                <g id="refresh">
                    <path d="M8,0 C3.581722,-2.705415e-16 5.3222807e-16,3.581722 -8.8565765e-18,8 C-0.00622410434,9.85884834 0.641578766,11.6606607 1.83,13.09 L1,13.09 C0.613400675,13.09 0.3,13.4034007 0.3,13.79 C0.3,14.1765993 0.613400675,14.49 1,14.49 L3.6,14.49 C3.64619043,14.4994286 3.69380957,14.4994286 3.74,14.49 L3.86,14.49 C3.89663095,14.4760951 3.93049292,14.455778 3.96,14.43 C4.00445156,14.3985069 4.04476765,14.3615504 4.08,14.32 C4.08,14.32 4.08,14.27 4.08,14.25 C4.15461122,14.187075 4.20133689,14.097218 4.21,14 C4.2145429,13.960129 4.2145429,13.919871 4.21,13.88 C4.21,13.88 4.21,13.82 4.21,13.78 L4.21,11.18 C4.21,10.7934007 3.89659932,10.48 3.51,10.48 C3.12340068,10.48 2.81,10.7934007 2.81,11.18 L2.81,12.18 C0.859991828,9.79677226 0.817171726,6.38178233 2.70681027,3.95040977 C4.59644881,1.51903721 7.91631612,0.717494457 10.7071699,2.01881742 C13.4980237,3.32014038 15.0181083,6.37846224 14.3703354,9.38889355 C13.7225625,12.3993249 11.0790978,14.5617504 8,14.6 C7.61340068,14.6 7.3,14.9134007 7.3,15.3 C7.3,15.6865993 7.61340068,16 8,16 C12.418278,16 16,12.418278 16,8 C16,3.581722 12.418278,2.705415e-16 8,0 Z" id="Path"></path>
                </g>
            </g>
        </g>
    </g>
</svg>

<svg viewBox="0 0 16 16"><path d="M8 0a8 8 0 0 0-8 8 7.92 7.92 0 0 0 1.83 5.09H1a.7.7 0 0 0 0 1.4h2.6a.35.35 0 0 0 .14 0h.12a.33.33 0 0 0 .1-.06.65.65 0 0 0 .12-.11v-.07a.37.37 0 0 0 .13-.25.53.53 0 0 0 0-.12v-2.7a.7.7 0 0 0-1.4 0v1A6.6 6.6 0 1 1 8 14.6.7.7 0 0 0 8 16 8 8 0 1 0 8 0z" fill="currentColor" fill-rule="evenodd"/></svg>
